public/themes/EC/images/footanim.svg

<?xml version="1.0" encoding="UTF-8"?>
<svg width="34px" height="29px" viewBox="0 0 34 29" version="1.1" xmlns="http://www.w3.org/2000/svg" xmlns:xlink="http://www.w3.org/1999/xlink">
    <!-- Generator: Sketch 61 (89581) - https://sketch.com -->
    <title>footanim</title>
    <desc>Created with Sketch.</desc>
    <g id="Page-1" stroke="none" stroke-width="1" fill="none" fill-rule="evenodd">
        <g id="footanim" fill="#383838" fill-rule="nonzero">
            <path d="M16.0897197,5.4375 C16.0897197,8.428125 14.1781311,10.875 11.8417451,10.875 C9.50535903,10.875 7.59377045,8.428125 7.59377045,5.4375 C7.59377045,2.446875 9.50535903,0 11.8417451,0 C14.1781311,0 16.0897197,2.446875 16.0897197,5.4375 Z M22.1582549,0 C19.8218689,0 17.9102803,2.446875 17.9102803,5.4375 C17.9102803,8.428125 19.8218689,10.875 22.1582549,10.875 C24.494641,10.875 26.4062296,8.428125 26.4062296,5.4375 C26.4062296,2.446875 24.494641,0 22.1582549,0 Z M2.58722891,9.48541667 C0.493584268,10.1197917 -0.538066715,12.8083333 0.281185537,15.5270833 C1.10043779,18.2458333 3.46716651,19.9677083 5.56081116,19.3333333 C7.6544558,18.6989583 8.68610678,16.0104167 7.86685453,13.2916667 C7.04760228,10.5729167 4.68087355,8.88125 2.58722891,9.48541667 Z M26.1634881,13.2916667 C25.3442359,16.0104167 26.3758869,18.7291667 28.4695315,19.3333333 C30.5631762,19.9677083 32.8995622,18.2458333 33.7188145,15.5572917 C34.5380667,12.86875 33.5064157,10.1197917 31.4127711,9.515625 C29.3191264,8.88125 26.9827404,10.5729167 26.1634881,13.2916667 Z M17,26.5833333 C20.6107784,26.5833333 18.8509032,29 23.6753887,29 C25.1621798,28.9395833 26.9827404,27.3989583 27.0132638,24.1666667 C27.0434257,19.9979167 23.2505913,13.8958333 17,13.59375 C10.7494087,13.8958333 6.95657425,19.9979167 6.98673623,24.1666667 C7.0172596,27.3989583 8.83782016,28.9395833 10.3246113,29 C15.1490968,29 13.3892216,26.5833333 17,26.5833333 Z" id="Shape"></path>
        </g>
    </g>
</svg>

<svg width="34" height="29" viewBox="0 0 34 29" xmlns="http://www.w3.org/2000/svg"><title>footanim</title><path d="M16.09 5.438c0 2.99-1.912 5.437-4.248 5.437-2.337 0-4.248-2.447-4.248-5.438C7.594 2.447 9.505 0 11.842 0c2.336 0 4.248 2.447 4.248 5.438zM22.158 0c-2.336 0-4.248 2.447-4.248 5.438 0 2.99 1.912 5.437 4.248 5.437 2.337 0 4.248-2.447 4.248-5.438 0-2.99-1.911-5.437-4.248-5.437zM2.588 9.485C.493 10.12-.539 12.808.28 15.527c.82 2.719 3.186 4.44 5.28 3.806 2.093-.634 3.125-3.323 2.306-6.041-.82-2.72-3.186-4.41-5.28-3.807zm23.575 3.807c-.819 2.718.213 5.437 2.307 6.041 2.093.635 4.43-1.087 5.249-3.776.82-2.688-.213-5.437-2.306-6.041-2.094-.635-4.43 1.057-5.25 3.776zM17 26.583c3.61 0 1.85 2.417 6.675 2.417 1.487-.06 3.308-1.601 3.338-4.833.03-4.17-3.762-10.271-10.013-10.573-6.25.302-10.043 6.404-10.013 10.573.03 3.232 1.85 4.773 3.338 4.833 4.824 0 3.064-2.417 6.675-2.417z" fill="#383838"/></svg>
